icon/fa/cart-flatbed-suitcase.svg

<svg xmlns="http://www.w3.org/2000/svg" viewBox="0 0 640 512"><!--! Font Awesome Free 6.1.2 by @fontawesome - https://fontawesome.com License - https://fontawesome.com/license/free (Icons: CC BY 4.0, Fonts: SIL OFL 1.1, Code: MIT License) Copyright 2022 Fonticons, Inc.--><path d="M541.2 448c.9 5 2.9 10.4 2.9 16 0 26.5-21.5 48-48.1 48-26.5 0-47.9-21.5-47.9-48 0-5.6 1.1-11 2-16h-197c1.8 5 2.9 10.4 2.9 16 0 26.5-21.5 48-48 48s-48-21.5-48-48c0-5.6 1.1-11 2.9-16H96c-17.6 0-32-14.4-32-32V80c0-8.84-7.16-16-16-16H32C14.4 64 0 49.6 0 32S14.4 0 32 0h32c35.2 0 64 28.8 64 64v320h480c17.6 0 32 14.4 32 32s-14.4 32-32 32h-66.8zM432 0c26.5 0 48 21.5 48 48v272H288V48c0-26.5 21.5-48 48-48h96zm-96 96h96V48h-96v48zm-80 224h-32c-17.6 0-32-14.4-32-32V128c0-17.6 14.4-32 32-32h32v224zm320-192v160c0 17.6-14.4 32-32 32h-32V96h32c17.6 0 32 14.4 32 32z"/></svg>

<svg xmlns="http://www.w3.org/2000/svg" viewBox="0 0 640 512" height="1em" width="1em">
<!--! Font Awesome Free 6.1.2 by @fontawesome - https://fontawesome.com License - https://fontawesome.com/license/free (Icons: CC BY 4.0, Fonts: SIL OFL 1.1, Code: MIT License) Copyright 2022 Fonticons, Inc.-->
  <path d="M541.2 448C542.1 453 544.1 458.4 544.1 464C544.1 490.5 522.6 512 496 512C469.5 512 448.1 490.5 448.1 464C448.1 458.4 449.2 453 450.1 448H253.1C254.9 453 256 458.4 256 464C256 490.5 234.5 512 208 512C181.5 512 160 490.5 160 464C160 458.4 161.1 453 162.9 448L96 448C78.4 448 64 433.6 64 416V80C64 71.16 56.84 64 48 64H32C14.4 64 0 49.6 0 32C0 14.4 14.4 0 32 0H64C99.2 0 128 28.8 128 64V384H608C625.6 384 640 398.4 640 416C640 433.6 625.6 448 608 448L541.2 448zM432 0C458.5 0 480 21.5 480 48V320H288V48C288 21.5 309.5 0 336 0H432zM336 96H432V48H336V96zM256 320H224C206.4 320 192 305.6 192 288V128C192 110.4 206.4 96 224 96H256V320zM576 128V288C576 305.6 561.6 320 544 320H512V96H544C561.6 96 576 110.4 576 128z"/>
</svg>
